flaticon/gastronomy/meat.svg

<svg xmlns="http://www.w3.org/2000/svg" width="32" height="32" viewBox="0 0 24 24">
    <path d="M 4.820312 12.367188 C 4.09375 12.367188 3.503906 12.957031 3.503906 13.683594 C 3.503906 14.410156 4.09375 15.003906 4.820312 15.003906 C 5.546875 15.003906 6.140625 14.410156 6.140625 13.683594 C 6.140625 12.957031 5.546875 12.367188 4.820312 12.367188 Z M 4.820312 14.125 C 4.578125 14.125 4.382812 13.925781 4.382812 13.683594 C 4.382812 13.441406 4.578125 13.246094 4.820312 13.246094 C 5.0625 13.246094 5.261719 13.441406 5.261719 13.683594 C 5.261719 13.925781 5.0625 14.125 4.820312 14.125 Z M 4.820312 14.125"/>
    <path d="M 23.640625 2.75 C 23.363281 2.335938 22.972656 2.039062 22.507812 1.882812 C 22.421875 1.855469 22.359375 1.796875 22.332031 1.707031 C 22.179688 1.242188 21.878906 0.851562 21.464844 0.574219 C 20.679688 0.0546875 19.621094 0.101562 18.886719 0.691406 C 18.332031 1.136719 18.03125 1.796875 18.066406 2.503906 C 18.089844 3.027344 17.933594 3.488281 17.621094 3.800781 L 14.917969 6.503906 L 14.433594 6.511719 C 13.683594 6.519531 12.984375 6.8125 12.460938 7.335938 C 10.765625 9.03125 8.515625 10.078125 5.957031 10.363281 C 4.433594 10.53125 3 11.226562 1.921875 12.316406 C -0.558594 14.820312 -0.648438 18.976562 1.722656 21.582031 C 2.980469 22.957031 4.691406 23.738281 6.550781 23.78125 C 6.601562 23.785156 6.65625 23.785156 6.710938 23.785156 C 8.507812 23.785156 10.191406 23.089844 11.46875 21.8125 C 12.445312 20.835938 13.089844 19.605469 13.332031 18.246094 C 13.761719 15.851562 14.976562 13.59375 16.847656 11.722656 C 16.96875 11.601562 17.078125 11.464844 17.191406 11.296875 L 17.652344 10.613281 L 16.308594 10.613281 C 16.441406 10.53125 16.570312 10.441406 16.683594 10.328125 L 20.414062 6.597656 C 20.726562 6.285156 21.179688 6.128906 21.710938 6.148438 C 22.425781 6.179688 23.078125 5.886719 23.527344 5.328125 C 24.113281 4.59375 24.160156 3.535156 23.640625 2.75 Z M 12.464844 18.089844 C 12.253906 19.269531 11.695312 20.34375 10.847656 21.191406 C 9.703125 22.335938 8.195312 22.9375 6.570312 22.90625 C 4.953125 22.867188 3.464844 22.1875 2.371094 20.988281 C 0.308594 18.726562 0.386719 15.113281 2.542969 12.933594 C 3.496094 11.972656 4.710938 11.382812 6.050781 11.234375 C 8.8125 10.929688 11.242188 9.796875 13.082031 7.957031 C 13.289062 7.75 13.539062 7.59375 13.816406 7.496094 L 12.941406 10.417969 L 14.484375 9.902344 L 14.484375 11.488281 L 15.851562 11.488281 C 14.066406 13.410156 12.898438 15.679688 12.464844 18.089844 Z M 22.839844 4.777344 C 22.574219 5.113281 22.175781 5.296875 21.753906 5.273438 C 20.972656 5.234375 20.28125 5.484375 19.792969 5.972656 L 16.0625 9.703125 C 15.875 9.894531 15.625 10 15.359375 10.015625 L 15.359375 8.683594 L 14.269531 9.050781 L 14.550781 8.113281 L 18.242188 4.421875 C 18.730469 3.933594 18.980469 3.238281 18.945312 2.464844 C 18.921875 2.039062 19.101562 1.644531 19.4375 1.375 C 19.867188 1.027344 20.519531 1 20.980469 1.308594 C 21.199219 1.453125 21.359375 1.65625 21.460938 1.894531 C 21.015625 2 20.609375 2.238281 20.300781 2.582031 C 20.136719 2.761719 20.152344 3.039062 20.332031 3.199219 C 20.417969 3.277344 20.523438 3.3125 20.625 3.3125 C 20.746094 3.3125 20.867188 3.265625 20.953125 3.167969 C 21.207031 2.882812 21.574219 2.714844 21.957031 2.707031 C 22.015625 2.707031 22.074219 2.691406 22.125 2.667969 C 22.164062 2.683594 22.195312 2.707031 22.234375 2.71875 C 22.511719 2.808594 22.742188 2.988281 22.90625 3.234375 C 23.214844 3.699219 23.1875 4.347656 22.839844 4.777344 Z M 22.839844 4.777344"/>
    <path d="M11.660156 16.417969C11.414062 16.375 11.191406 16.535156 11.148438 16.773438 11.066406 17.234375 10.921875 17.683594 10.71875 18.109375 10.617188 18.328125 10.710938 18.589844 10.929688 18.695312 10.992188 18.722656 11.054688 18.738281 11.117188 18.738281 11.28125 18.738281 11.4375 18.644531 11.515625 18.488281 11.75 17.988281 11.917969 17.464844 12.015625 16.929688 12.054688 16.691406 11.898438 16.460938 11.660156 16.417969zM9.972656 19.285156C9.039062 20.417969 7.667969 21.207031 6.210938 21.449219 5.972656 21.492188 5.8125 21.71875 5.851562 21.957031 5.886719 22.171875 6.074219 22.324219 6.285156 22.324219 6.308594 22.324219 6.332031 22.320312 6.355469 22.316406 8.015625 22.039062 9.582031 21.136719 10.652344 19.839844 10.804688 19.65625 10.777344 19.378906 10.589844 19.222656 10.40625 19.070312 10.125 19.097656 9.972656 19.285156zM9.972656 19.285156"/>
</svg>

<svg xmlns="http://www.w3.org/2000/svg" width="32" height="32" viewBox="0 0 24 24">
    <path d="M4.82 12.367c-.726 0-1.316.59-1.316 1.317 0 .726.59 1.32 1.316 1.32.727 0 1.32-.594 1.32-1.32a1.32 1.32 0 0 0-1.32-1.317zm0 1.758a.44.44 0 1 1 .442-.441c0 .242-.2.441-.442.441zm0 0"/>
    <path d="M23.64 2.75a2.189 2.189 0 0 0-1.132-.867.257.257 0 0 1-.176-.176 2.169 2.169 0 0 0-.867-1.133 2.207 2.207 0 0 0-2.578.117 2.166 2.166 0 0 0-.82 1.813c.023.523-.133.984-.446 1.297l-2.703 2.703-.484.008c-.75.008-1.45.3-1.973.824-1.695 1.695-3.945 2.742-6.504 3.027a6.735 6.735 0 0 0-4.035 1.953c-2.48 2.504-2.57 6.66-.2 9.266a6.694 6.694 0 0 0 4.829 2.2 6.671 6.671 0 0 0 4.918-1.969 6.672 6.672 0 0 0 1.863-3.567c.43-2.394 1.645-4.652 3.516-6.523.12-.121.23-.258.343-.426l.461-.684H16.31c.132-.082.261-.172.375-.285l3.73-3.73c.313-.313.766-.47 1.297-.45a2.168 2.168 0 0 0 1.816-.82 2.213 2.213 0 0 0 .114-2.578zM12.466 18.09a5.814 5.814 0 0 1-1.617 3.101 5.811 5.811 0 0 1-4.278 1.715 5.82 5.82 0 0 1-4.199-1.918c-2.062-2.261-1.984-5.875.172-8.054a5.797 5.797 0 0 1 3.508-1.7c2.761-.304 5.191-1.437 7.031-3.277.207-.207.457-.363.734-.46l-.875 2.921 1.543-.516v1.586h1.368c-1.786 1.922-2.954 4.192-3.387 6.602zM22.84 4.777c-.266.336-.664.52-1.086.496-.781-.039-1.473.211-1.961.7l-3.73 3.73a1.062 1.062 0 0 1-.704.313V8.684l-1.09.367.282-.938 3.691-3.691c.488-.488.738-1.184.703-1.957a1.29 1.29 0 0 1 .492-1.09 1.333 1.333 0 0 1 1.543-.066c.22.144.38.347.48.586a2.258 2.258 0 0 0-1.16.687.434.434 0 0 0 .032.617.433.433 0 0 0 .293.114.433.433 0 0 0 .328-.145 1.387 1.387 0 0 1 1.004-.461.408.408 0 0 0 .168-.039c.04.016.07.039.11.05.277.09.507.27.671.516a1.333 1.333 0 0 1-.066 1.543zm0 0"/>
    <path d="M11.66 16.418a.438.438 0 0 0-.512.355c-.082.461-.226.91-.43 1.336a.444.444 0 0 0 .4.63c.163 0 .32-.094.398-.25.234-.5.402-1.024.5-1.56a.445.445 0 0 0-.356-.511zm0 0M9.973 19.285A6.271 6.271 0 0 1 6.21 21.45a.44.44 0 1 0 .074.875c.024 0 .047-.004.07-.008a7.182 7.182 0 0 0 4.297-2.476.44.44 0 0 0-.062-.617.44.44 0 0 0-.617.062zm0 0"/>
</svg>
